Numix-GalliumOS/24/categories/applications-photography.svg

<?xml version="1.0" encoding="UTF-8" standalone="no"?>
<svg
   xmlns:dc="http://purl.org/dc/elements/1.1/"
   xmlns:cc="http://creativecommons.org/ns#"
   xmlns:rdf="http://www.w3.org/1999/02/22-rdf-syntax-ns#"
   xmlns:svg="http://www.w3.org/2000/svg"
   xmlns="http://www.w3.org/2000/svg"
   xmlns:sodipodi="http://sodipodi.sourceforge.net/DTD/sodipodi-0.dtd"
   xmlns:inkscape="http://www.inkscape.org/namespaces/inkscape"
   width="24"
   height="24"
   viewBox="0 0 19.2 19.2"
   id="svg2"
   version="1.1"
   inkscape:version="0.91 r"
   sodipodi:docname="applications-photography.svg">
  <metadata
     id="metadata18">
    <rdf:RDF>
      <cc:Work
         rdf:about="">
        <dc:format>image/svg+xml</dc:format>
        <dc:type
           rdf:resource="http://purl.org/dc/dcmitype/StillImage" />
        <dc:title />
      </cc:Work>
    </rdf:RDF>
  </metadata>
  <defs
     id="defs16" />
  <sodipodi:namedview
     pagecolor="#ffffff"
     bordercolor="#666666"
     borderopacity="1"
     objecttolerance="10"
     gridtolerance="10"
     guidetolerance="10"
     inkscape:pageopacity="0"
     inkscape:pageshadow="2"
     inkscape:window-width="1680"
     inkscape:window-height="1026"
     id="namedview14"
     showgrid="true"
     inkscape:zoom="19.873684"
     inkscape:cx="15.239809"
     inkscape:cy="9.9458805"
     inkscape:window-x="0"
     inkscape:window-y="24"
     inkscape:window-maximized="1"
     inkscape:current-layer="svg2">
    <inkscape:grid
       type="xygrid"
       id="grid4146" />
  </sodipodi:namedview>
  <path
     style="fill:none;stroke:#e08dc9;stroke-width:1.20000005;stroke-linecap:round;stroke-linejoin:round;stroke-miterlimit:4;stroke-dasharray:none"
     d="m 3.6448062,5.2736843 11.9103868,0 c 0.355755,0 0.644807,0.2840508 0.644807,0.6354732 l 0,7.3835055 c 0,0.349602 -0.289052,0.633653 -0.644807,0.633653 l -11.9103868,0 C 3.2890511,13.926316 3,13.642265 3,13.292663 L 3,5.9091575 C 3,5.5577351 3.2890511,5.2736843 3.6448062,5.2736843 Z"
     id="path4"
     inkscape:connector-curvature="0" />
  <path
     style="fill:#e08dc9"
     inkscape:connector-curvature="0"
     id="path8"
     d="M 4.4676489,4 6.3323505,4 C 6.591719,4 6.8,4.267789 6.8,4.6012634 6.8,4.93221 6.591719,5.2 6.3323505,5.2 l -1.8647016,0 C 4.2082804,5.2 4,4.93221 4,4.6012634 4,4.267789 4.2082804,4 4.4676489,4 Z" />
  <path
     style="fill:#e08dc9"
     inkscape:connector-curvature="0"
     id="path10"
     d="m 14.401123,6.4 0.399438,0 C 15.021348,6.4 15.2,6.580084 15.2,6.800561 l 0,0.4005605 C 15.2,7.4215985 15.021348,7.6 14.800561,7.6 l -0.399438,0 C 14.178651,7.6 14,7.4215985 14,7.2011215 L 14,6.800561 C 14,6.580084 14.178651,6.4 14.401123,6.4 Z" />
  <path
     style="fill:none;stroke:#e08dc9;stroke-width:1.20000005;stroke-miterlimit:4;stroke-dasharray:none"
     d="M 12.2,9.6000006 C 12.2,11.036404 11.036399,12.20001 9.6,12.20001 8.1636005,12.20001 7,11.036404 7,9.6000006 7,8.1635959 8.1636005,6.9999905 9.6,6.9999905 c 1.436399,0 2.6,1.1636054 2.6,2.6000101 z"
     id="path12"
     inkscape:connector-curvature="0" />
</svg>

<svg xmlns="http://www.w3.org/2000/svg" width="24" height="24" viewBox="0 0 19.2 19.2">
 <path d="m 3.645 5.274 11.91 0 c 0.356 0 0.645 0.284 0.645 0.635 l 0 7.384 c 0 0.35 -0.289 0.634 -0.645 0.634 l -11.91 0 c -0.356 0 -0.645 -0.284 -0.645 -0.634 l 0 -7.384 c 0 -0.351 0.289 -0.635 0.645 -0.635" style="stroke-dasharray:none;fill:none;stroke-miterlimit:4;stroke:#e08dc9;stroke-linecap:round;stroke-linejoin:round;stroke-width:1.2"/>
 <path d="m 4.468 4 1.865 0 c 0.259 0 0.468 0.268 0.468 0.601 0 0.331 -0.208 0.599 -0.468 0.599 l -1.865 0 c -0.259 0 -0.468 -0.268 -0.468 -0.599 0 -0.333 0.208 -0.601 0.468 -0.601" style="fill:#e08dc9"/>
 <path d="m 14.401 6.4 0.399 0 c 0.221 0 0.399 0.18 0.399 0.401 l 0 0.401 c 0 0.22 -0.179 0.399 -0.399 0.399 l -0.399 0 c -0.222 0 -0.401 -0.178 -0.401 -0.399 l 0 -0.401 c 0 -0.22 0.179 -0.401 0.401 -0.401" style="fill:#e08dc9"/>
 <path d="m 12.2 9.6 c 0 1.436 -1.164 2.6 -2.6 2.6 -1.436 0 -2.6 -1.164 -2.6 -2.6 0 -1.436 1.164 -2.6 2.6 -2.6 c 1.436 0 2.6 1.164 2.6 2.6 z" style="stroke-dasharray:none;fill:none;stroke-miterlimit:4;stroke:#e08dc9;stroke-width:1.2"/>
</svg>
